src/extras-openmoji/objects/E147.svg

<svg id="emoji" viewBox="0 0 72 72" xmlns="http://www.w3.org/2000/svg">
  <g id="grid">
    <path fill="#b3b3b3" d="M68,4V68H4V4H68m4-4H0V72H72V0Z"/>
    <path fill="none" stroke="#00a5ff" stroke-miterlimit="10" stroke-width="0.1" d="M12.923,10.9583H59.0769A1.9231,1.9231,0,0,1,61,12.8814V59.0352a1.9231,1.9231,0,0,1-1.9231,1.9231H12.9231A1.9231,1.9231,0,0,1,11,59.0352V12.8813A1.923,1.923,0,0,1,12.923,10.9583Z"/>
    <rect x="16" y="4" rx="2.2537" ry="2.2537" width="40" height="64" fill="none" stroke="#00a5ff" stroke-miterlimit="10" stroke-width="0.1"/>
    <rect x="16" y="4" rx="2.2537" ry="2.2537" width="40" height="64" transform="translate(72) rotate(90)" fill="none" stroke="#00a5ff" stroke-miterlimit="10" stroke-width="0.1"/>
    <circle cx="36" cy="36" r="29" fill="none" stroke="#00a5ff" stroke-miterlimit="10" stroke-width="0.1"/>
  </g>
  <g id="color">
    <rect x="4.7004" y="20.1471" rx="3.4092" ry="3.4092" width="62.5993" height="38.7052" fill="#d0cfce"/>
    <rect x="31.396" y="10.5993" rx="1.5573" ry="1.5573" width="9.0029" height="15.6727" fill="#9b9b9a"/>
    <path fill="#9b9b9a" d="M17.4032,30.6509H55.1065a5.7472,5.7472,0,0,1,5.7472,5.7472V50.7022a2.9184,2.9184,0,0,1-2.9184,2.9184H12.783a2.9184,2.9184,0,0,1-2.9184-2.9184V38.1894A7.5386,7.5386,0,0,1,17.4032,30.6509Z"/>
    <rect x="11.4738" y="31.3668" rx="2.9184" ry="2.9184" width="47.9998" height="19.7312" fill="#fff"/>
  </g>
  <g id="line">
    <path fill="none" stroke="#000" stroke-linecap="round" stroke-linejoin="round" stroke-width="2" d="M40.5015,20.6474h23.389A3.4091,3.4091,0,0,1,67.3,24.0566V55.9434a3.4091,3.4091,0,0,1-3.4091,3.4092H8.11A3.4091,3.4091,0,0,1,4.7,55.9434V24.0566A3.4091,3.4091,0,0,1,8.11,20.6474H31.396"/>
    <rect x="11.4738" y="31.3668" rx="2.9184" ry="2.9184" width="47.9998" height="19.7312" fill="none" stroke="#000" stroke-linecap="round" stroke-linejoin="round" stroke-width="2"/>
    <polyline fill="none" stroke="#000" stroke-linecap="round" stroke-linejoin="round" stroke-width="2" points="52.396 38.141 48.396 38.141 48.396 45.141 52.396 45.141"/>
    <line x1="48.396" x2="51.396" y1="41.641" y2="41.641" fill="none" stroke="#000" stroke-linecap="round" stroke-linejoin="round" stroke-width="2"/>
    <polyline fill="none" stroke="#000" stroke-linecap="round" stroke-linejoin="round" stroke-width="2" points="34.396 45.141 31.396 38.141 28.396 45.141"/>
    <line x1="29.396" x2="33.396" y1="43.4649" y2="43.4649" fill="none" stroke="#000" stroke-linecap="round" stroke-linejoin="round" stroke-width="2"/>
    <polyline fill="none" stroke="#000" stroke-linecap="round" stroke-linejoin="round" stroke-width="2" points="19.396 45.141 19.396 38.141 24.396 45.141 24.396 38.141"/>
    <polyline fill="none" stroke="#000" stroke-linecap="round" stroke-linejoin="round" stroke-width="2" points="44.396 45.141 44.396 38.141 41.396 44.141 38.396 38.141 38.396 45.141"/>
    <rect x="31.4986" y="10.2372" rx="1.5573" ry="1.5573" width="9.0029" height="15.6727" fill="none" stroke="#000" stroke-miterlimit="10" stroke-width="2"/>
  </g>
</svg>

<svg viewBox="0 0 72 72" xmlns="http://www.w3.org/2000/svg"><path fill="#b3b3b3" d="M68 4v64H4V4h64m4-4H0v72h72V0z"/><path fill="none" stroke="#00a5ff" stroke-miterlimit="10" stroke-width=".1" d="M12.923 10.958h46.154A1.923 1.923 0 0161 12.881v46.154a1.923 1.923 0 01-1.923 1.923H12.923A1.923 1.923 0 0111 59.035V12.881a1.923 1.923 0 011.923-1.923z"/><rect x="16" y="4" rx="2.254" ry="2.254" width="40" height="64" fill="none" stroke="#00a5ff" stroke-miterlimit="10" stroke-width=".1"/><rect x="16" y="4" rx="2.254" ry="2.254" width="40" height="64" transform="rotate(90 36 36)" fill="none" stroke="#00a5ff" stroke-miterlimit="10" stroke-width=".1"/><circle cx="36" cy="36" r="29" fill="none" stroke="#00a5ff" stroke-miterlimit="10" stroke-width=".1"/><g stroke-linecap="round" stroke-miterlimit="10" stroke-width="6" stroke="#fff" fill="none" stroke-linejoin="round"><path d="M40.502 20.647H63.89a3.41 3.41 0 013.41 3.41v31.886a3.41 3.41 0 01-3.41 3.41H8.11a3.41 3.41 0 01-3.41-3.41V24.057a3.41 3.41 0 013.41-3.41h23.286"/><rect x="11.474" y="31.367" rx="2.918" ry="2.918" width="48" height="19.731"/><path d="M52.396 38.141h-4v7h4m-4-3.5h3m-17 3.5l-3-7-3 7m1-1.676h4m-14 1.676v-7l5 7v-7m20 7v-7l-3 6-3-6v7"/><rect x="31.499" y="10.237" rx="1.557" ry="1.557" width="9.003" height="15.673"/></g><rect x="4.7" y="20.147" rx="3.409" ry="3.409" width="62.599" height="38.705" fill="#d0cfce"/><rect x="31.396" y="10.599" rx="1.557" ry="1.557" width="9.003" height="15.673" fill="#9b9b9a"/><path fill="#9b9b9a" d="M17.403 30.65h37.703a5.747 5.747 0 015.748 5.748v14.304a2.918 2.918 0 01-2.919 2.919H12.783a2.918 2.918 0 01-2.918-2.919V38.19a7.539 7.539 0 017.538-7.538z"/><rect x="11.474" y="31.367" rx="2.918" ry="2.918" width="48" height="19.731" fill="#fff"/><g fill="none" stroke="#000" stroke-width="2"><path stroke-linecap="round" stroke-linejoin="round" d="M40.502 20.647H63.89a3.41 3.41 0 013.41 3.41v31.886a3.41 3.41 0 01-3.41 3.41H8.11a3.41 3.41 0 01-3.41-3.41V24.057a3.41 3.41 0 013.41-3.41h23.286"/><rect x="11.474" y="31.367" rx="2.918" ry="2.918" width="48" height="19.731" stroke-linecap="round" stroke-linejoin="round"/><path stroke-linecap="round" stroke-linejoin="round" d="M52.396 38.141h-4v7h4m-4-3.5h3m-17 3.5l-3-7-3 7m1-1.676h4m-14 1.676v-7l5 7v-7m20 7v-7l-3 6-3-6v7"/><rect x="31.499" y="10.237" rx="1.557" ry="1.557" width="9.003" height="15.673" stroke-miterlimit="10"/></g></svg>
